packages/icon/src/svg/browse.icon.svg

<?xml version="1.0" encoding="UTF-8"?>
<svg width="24px" height="24px" viewBox="0 0 24 24" version="1.1" xmlns="http://www.w3.org/2000/svg" xmlns:xlink="http://www.w3.org/1999/xlink">
    <!-- Generator: Sketch 46.1 (44463) - http://www.bohemiancoding.com/sketch -->
    <title>Icon/browse.icon</title>
    <desc>Created with Sketch.</desc>
    <defs>
        <path d="M4,8 L20,8 C21.1045695,8 22,8.8954305 22,10 L22,20 C22,21.1045695 21.1045695,22 20,22 L4,22 C2.8954305,22 2,21.1045695 2,20 L2,10 C2,8.8954305 2.8954305,8 4,8 Z M4,10 L4,20 L20,20 L20,10 L4,10 Z M10,12 L15,15 L10,18 L10,12 Z M6,5 L18,5 C19.1045695,5 20,5.8954305 20,7 L4,7 C4,5.8954305 4.8954305,5 6,5 Z M8,2 L16,2 C17.1045695,2 18,2.8954305 18,4 L6,4 C6,2.8954305 6.8954305,2 8,2 Z" id="path-1"></path>
    </defs>
    <g id="Symbols" stroke="none" stroke-width="1" fill="none" fill-rule="evenodd">
        <g id="Icon/browse">
            <mask id="mask-2" fill="white">
                <use xlink:href="#path-1"></use>
            </mask>
            <use id="Combined-Shape" fill="#000000" xlink:href="#path-1"></use>
            <g id="Color/Neutral/White" mask="url(#mask-2)" fill="#FFFFFF">
                <g transform="translate(2.000000, 2.000000)" id="222222-Fill">
                    <rect x="0" y="0" width="24" height="24"></rect>
                </g>
            </g>
        </g>
    </g>
</svg>

<svg viewBox="0 0 24 24" xmlns="http://www.w3.org/2000/svg"><path d="M4 8h16c1.1046 0 2 .8954 2 2v10c0 1.1046-.8954 2-2 2H4c-1.1046 0-2-.8954-2-2V10c0-1.1046.8954-2 2-2zm0 2v10h16V10H4zm6 2l5 3-5 3v-6zM6 5h12c1.1046 0 2 .8954 2 2H4c0-1.1046.8954-2 2-2zm2-3h8c1.1046 0 2 .8954 2 2H6c0-1.1046.8954-2 2-2z" /></svg>
